!!!COM: Silva, Adalberto Higino Taveres
!!!CDT: b. 1961
!!!OTL: National Anthem, Cape Verde
!!!ENC: Davis, Matthew J.
!!Vocal Line Only
**kern
*clefG2
*k[]
*C:
*M4/4
=1-
1r
=2
1r
=3
2r
4e
8.e
16d
=4
4c
8.g
16e
[4a
8.a]
16b
=5
4.g
8d
8e
8f
8e
8d
=6
4g
8.e
16c
8.d
16e
8.f
16B
=7
4c
4c
8r
8a
8dd
8cc
=8
4b
8g
8g
4f
8g
8a
=9
2g
4e
8r
8e
=10
8.d
16e
8.f
16g
4a
4b
=11
4g
4r
8G
8e
8e
8d
=12
4c
8.c
16e
4g
8e
16r
16c
==||13
*k[b-]
[4f
8.f]
16g
4.a-
8r
=14
[4cc
8cc]
8cc
4g
8.e-
16c
=15
2d
8r
8g
8e
8d
=16
8.c
16e
[4g
8g]
8r
8.c
16c
==||17
*k[]
8.f
16g
8.a
16a
4a
8.b
16cc
=18
4b
4g
4g
8.e
16c
=19
4.B
8c
8d
8r
8c
8c
=20
8e
8g
[4g
8g]
8e
8d
8c
=21
8f
16g
[16a
2a]
8r
8b
=22
4cc
8g
8g
8.f#
16f#
8f#
8f#
=23
4.b
8a
4a
[4g
=24
8g]
8r
4r
4g
8.g
16g
=25
4.a
8r
8.dd
16b
8.cc
16a
=26
4.g
16r
16g
8.a
16g
8.a
16cc
=27
4b
8b
16a
8.g
16a
8.b
16g
=28
[4cc
4cc]
[2cc
=29
1cc]
==|!
*-
